img/icon-technics.svg

<?xml version="1.0" encoding="UTF-8"?>
<svg width="78px" height="62px" viewBox="0 0 78 62" version="1.1" xmlns="http://www.w3.org/2000/svg" xmlns:xlink="http://www.w3.org/1999/xlink">
    <!-- Generator: Sketch 49.3 (51167) - http://www.bohemiancoding.com/sketch -->
    <title>icon-3</title>
    <desc>Created with Sketch.</desc>
    <defs></defs>
    <g id="Pages" stroke="none" stroke-width="1" fill="none" fill-rule="evenodd">
        <g id="Index" transform="translate(-961.000000, -410.000000)" fill="#FFFFFF">
            <g id="item-3" transform="translate(770.000000, 379.000000)">
                <g id="icon-3" transform="translate(191.000000, 31.000000)">
                    <g id="Shape">
                        <path d="M16.125,29.749 C7.22,29.749 0,36.968 0,45.875 C0,54.78 7.22,62 16.125,62 C25.03,62 32.25,54.78 32.25,45.875 C32.251,36.968 25.031,29.749 16.125,29.749 Z M16.125,53.182 C14.1869818,53.1822653 12.3282636,52.412508 10.9578778,51.0421222 C9.58749196,49.6717364 8.81773472,47.8130182 8.818,45.875 C8.818,41.8394553 12.0894553,38.568 16.125,38.568 C20.1605447,38.568 23.432,41.8394553 23.432,45.875 C23.4322653,47.8130182 22.662508,49.6717364 21.2921222,51.0421222 C19.9217364,52.412508 18.0630182,53.1822653 16.125,53.182 Z M60.854,45.874 C56.4014803,45.874 52.792,49.4834803 52.792,53.936 C52.7919999,56.8162752 54.3286084,59.4777594 56.8229999,60.917897 C59.3173914,62.3580347 62.3906086,62.3580347 64.8850001,60.917897 C67.3793916,59.4777594 68.9160001,56.8162752 68.916,53.936 C68.9165307,51.797662 68.0673142,49.7467524 66.5552809,48.2347191 C65.0432476,46.7226858 62.992338,45.8734693 60.854,45.874 Z M60.854,59 C58.0577823,58.9994477 55.7914477,56.7322177 55.792,53.936 C55.7925523,51.1397823 58.0597823,48.8734477 60.856,48.874 C63.6522176,48.8745524 65.9185521,51.1417824 65.9179998,53.938 C65.9174475,56.7342176 63.6502176,59.0005522 60.854,59 Z" fill-rule="nonzero"></path>
                        <path d="M77.898,49.727 C77.898,49.727 75.875,34.625 75.437,31.313 C74.89,27.172 71.812,26.625 71.812,26.625 L66,25.946 L66,14 L63,14 L63,19.833 L59,19.833 L59,25.128 L47.188,23.75 C47.188,23.75 37.438,3.688 36.626,1.875 C35.814,0.062 33.5,0 33.5,0 C33.5,0 11.125,2.375 8.75,3 C6.375,3.625 5.312,6.167 5.312,6.167 C3.004,12.537 3.001,23.463 3.046,26.422 C6.90969632,23.8168441 11.4650718,22.4285325 16.125,22.436 C29.069,22.436 39.563,32.929 39.563,45.875 C39.563,48.313 39.19,50.664 38.499,52.875 L48.663,52.875 C49.053,46.473 54.353,41.396 60.854,41.396 C67.355,41.396 72.656,46.473 73.045,52.875 L75,52.875 C78.641,52.875 77.898,49.727 77.898,49.727 Z M23.083,19.833 L16.125,19.833 L16.125,6.167 L23.083,6.167 L23.083,19.833 Z M33.083,19.833 L26.125,19.833 L26.125,6.167 L33.083,6.167 L33.083,19.833 Z M53.016,36 L49,36 L49,29 L53.016,29 L53.016,36 Z M60.016,36 L56,36 L56,29 L60.016,29 L60.016,36 Z M67.016,36 L63,36 L63,29 L67.016,29 L67.016,36 Z" fill-rule="nonzero"></path>
                    </g>
                </g>
            </g>
        </g>
    </g>
</svg>

<svg width="78" height="62" viewBox="0 0 78 62" xmlns="http://www.w3.org/2000/svg"><g fill-rule="nonzero" fill="#FFF"><path d="M16.125 29.749C7.22 29.749 0 36.968 0 45.875 0 54.78 7.22 62 16.125 62c8.905 0 16.125-7.22 16.125-16.125.001-8.907-7.219-16.126-16.125-16.126zm0 23.433a7.306 7.306 0 01-7.307-7.307 7.307 7.307 0 117.307 7.307zm44.729-7.308a8.062 8.062 0 100 16.124 8.062 8.062 0 000-16.124zm0 13.126a5.063 5.063 0 11.002-10.126A5.063 5.063 0 0160.854 59z"/><path d="M77.898 49.727s-2.023-15.102-2.461-18.414c-.547-4.141-3.625-4.688-3.625-4.688L66 25.946V14h-3v5.833h-4v5.295L47.188 23.75S37.438 3.688 36.626 1.875C35.814.062 33.5 0 33.5 0S11.125 2.375 8.75 3 5.312 6.167 5.312 6.167c-2.308 6.37-2.311 17.296-2.266 20.255a23.328 23.328 0 0113.079-3.986c12.944 0 23.438 10.493 23.438 23.439 0 2.438-.373 4.789-1.064 7h10.164c.39-6.402 5.69-11.479 12.191-11.479s11.802 5.077 12.191 11.479H75c3.641 0 2.898-3.148 2.898-3.148zM23.083 19.833h-6.958V6.167h6.958v13.666zm10 0h-6.958V6.167h6.958v13.666zM53.016 36H49v-7h4.016v7zm7 0H56v-7h4.016v7zm7 0H63v-7h4.016v7z"/></g></svg>
